src/assets/images/prototype/autres-elements/5-tablette-moins.svg

<svg width="103" height="65" viewBox="0 0 103 65" fill="none" xmlns="http://www.w3.org/2000/svg">
<path d="M89.2336 20.2681C93.4368 21.8443 98.1866 27.6762 100.663 31.2881C101.198 32.0684 101.46 32.996 101.46 33.942V45.778C101.46 51.7483 97.2699 55.847 95.175 57.15C88.1918 61.8131 73.2096 62.3829 55.0173 62.8361C38.7384 63.2416 14.3876 64.2112 7.83355 59.9503C7.53048 59.7532 7.22594 59.5674 6.92704 59.3641C3.91361 57.3145 2.45734 50.4658 1.75586 45.4343C1.3432 42.4745 1.08801 37.3101 1.02022 34.3223C1.00755 33.7642 1 33.1559 1 32.4941C1 24.8842 7.03936 21.5938 13.226 20.2681C19.4127 18.9424 66.6964 18.0586 70.2317 18.0586C73.7669 18.0586 83.3415 18.0586 89.2336 20.2681Z" fill="white" stroke="#81EC40" stroke-width="2" stroke-linejoin="round"/>
<path d="M89.2336 3.20952C93.4368 4.78573 98.1866 10.6176 100.663 14.2295C101.198 15.0098 101.46 15.9374 101.46 16.8834V28.7194C101.46 34.6897 97.2699 38.7884 95.175 40.0914C88.1918 44.7545 73.2096 45.3243 55.0173 45.7775C38.7384 46.183 14.3876 47.1526 7.83355 42.8917C7.53048 42.6947 7.22594 42.5088 6.92704 42.3055C3.91361 40.2559 2.45734 33.4072 1.75586 28.3757C1.3432 25.4159 1.08801 20.2515 1.02022 17.2638C1.00755 16.7056 1 16.0973 1 15.4355C1 7.8256 7.03936 4.53523 13.226 3.20952C19.4127 1.88381 66.6964 1 70.2317 1C73.7669 1 83.3415 1 89.2336 3.20952Z" fill="white" stroke="#81EC40" stroke-width="2" stroke-linejoin="round"/>
</svg>

<svg width="103" height="65" fill="none" xmlns="http://www.w3.org/2000/svg"><path d="M89.234 20.268c4.203 1.576 8.953 7.408 11.429 11.02.535.78.797 1.708.797 2.654v11.836c0 5.97-4.19 10.069-6.285 11.372-6.983 4.663-21.965 5.233-40.158 5.686-16.279.406-40.63 1.375-47.183-2.886-.304-.197-.608-.383-.907-.586-3.013-2.05-4.47-8.898-5.171-13.93-.413-2.96-.668-8.124-.736-11.112A80.505 80.505 0 011 32.494c0-7.61 6.04-10.9 12.226-12.226 6.187-1.326 53.47-2.21 57.006-2.21 3.535 0 13.11 0 19.002 2.21z" fill="#fff" stroke="#81EC40" stroke-width="2" stroke-linejoin="round"/><path d="M89.234 3.21c4.203 1.576 8.953 7.408 11.429 11.02.535.78.797 1.707.797 2.653V28.72c0 5.97-4.19 10.07-6.285 11.372-6.983 4.663-21.965 5.233-40.158 5.687-16.279.405-40.63 1.375-47.183-2.886-.304-.197-.608-.383-.907-.587-3.013-2.05-4.47-8.898-5.171-13.93-.413-2.96-.668-8.123-.736-11.111a80.521 80.521 0 01-.02-1.83c0-7.61 6.04-10.9 12.226-12.225C19.413 1.884 66.696 1 70.232 1c3.535 0 13.11 0 19.002 2.21z" fill="#fff" stroke="#81EC40" stroke-width="2" stroke-linejoin="round"/></svg>
